!!!!SEGMENT: pl-wtm--r-1405--005_stefani-jozef--allegretto.krn
!!!cenid: 18xx:1878
!!!COM: Stefani, Józef
!!!COM-rismid: pe30024097
!!!CDT: 1800/04/16-1876/03/19
!!!CNT: Polish
!!!OTL: Allegretto
!!!PDT:
!!!AGN: Secular
!!!SMS-siglum: PL-Wtm
!!!SMS-shelfmark: R 1405
!!!SMS-shelfwork: 005 W
!!!SMS-variant:
!!!SMS-altvar:
!!!NIFC-rismid: 1001117994
!!!URL-scan: http://repozytorium.nifc.pl/skany/pl-wtm-nut--r1405
!!!ONB-nifc: UWAGA: skan 0005, str. 6. Allegro moderato na dole strony to osobny utwór
**kern	**kern	**dynam
*part2	*part1	*
*staff2	*staff1	*
*I"[Piano]	*I"[Piano]	*
*I'[pf]	*I'[pf]	*
*clefF4	*clefG2	*
*k[f#]	*k[f#]	*
*M6/8	*M6/8	*
*>[A,B,B1,B,B2,C]	*>[A,B,B1,B,B2,C]	*
=1	=1	=1
*>A	*>A	*
!	!LO:TX:a:t=P:problem:all\right:global	!
!LO:TX:t=P:problem:mixed beam	!LO:TX:i:a:t=Allegretto.	!LO:DY:b:rj
8GG/L	2.r	f
!	!	!LO:HP:b
8B\ 8G\ 8D\	.	>
8B\J 8G\ 8D\	.	.
*rep	*	*
!LO:TX:t=P:problem:mixed beam	!	!
8GG/L	.	.
8B\ 8G\ 8D\	.	.
8B\J 8G\ 8D\	.	.
*Xrep	*	*
=2	=2	=2
8GG/	4r	.
8BL 8G 8D\	.	]]
8BJ 8G 8D\	8r	.
*rep	*	*
8GG/	8r	.
8BL 8G 8D\	8e'</L	.
8BJ 8G 8D\	[<8d'</J	.
*Xrep	*	*
=3	=3	=3
*rep	*	*
8GG/	8d/L]	.
8BL 8G 8D\	8b'</	.
8BJ 8G 8D\	8g'</J	.
8GG/	4dd'>\	.
8BL 8G 8D\	.	.
8BJ 8G 8D\	8ee'>\	.
*Xrep	*	*
=4	=4	=4
*rep	*	*
.	8qee/	.
8GG/	8.dd\L	.
8BL 8G 8D\	.	.
.	16cc#X\K	.
8BJ 8G 8D\	8dd\J	.
8GG/	8b\L	.
8BL 8G 8D\	8r	.
8BJ 8G 8D\	8b\J	.
*Xrep	*	*
=5	=5	=5
.	8qdd/	.
8D\L	8.ccn\L	.
8c 8A 8F#\	.	.
.	16b\K	.
8cJ 8A 8F#\	8cc\J	.
*rep	*	*
8D\L	8a/L	.
8c 8A 8F#\	8r	.
8cJ 8A 8F#\	8a/J	.
*Xrep	*	*
!!LO:LB:g=original
=6	=6	=6
!LO:TX:t=P:problem:mixed beam	!	!
8GG/L	8g/L	.
8B\ 8G\ 8D\	8b/	.
8BJ 8G 8D\	8f#/J	.
!LO:TX:t=P:problem:mixed beam	!	!
*rep	*	*
8GG/L	8g/	.
8B 8G 8D\	8eeL 8e'</	.
8BJ 8G 8D\	[>8ddJ [<8d'</	.
*Xrep	*	*
=7	=7	=7
*rep	*	*
!LO:TX:t=P:problem:mixed beam	!	!
8GG/L	8dd]L 8d\]	.
8B 8G 8D\	8bb 8b'>\	.
8BJ 8G 8D\	8ggJ 8g'>\	.
!LO:TX:t=P:problem:mixed beam	!	!
8GG/L	4ddd 4dd\	.
8B 8G 8D\	.	.
8BJ 8G 8D\	8eee 8ee\	.
*Xrep	*	*
=8	=8	=8
*rep	*	*
!LO:TX:t=P:problem:mixed beam	!	!
.	8qeee/	.
8GG/L	8.ddd\L	.
8B 8G 8D\	.	.
.	16ccc#X\K	.
8BJ 8G 8D\	8ddd\J	.
!LO:TX:t=P:problem:mixed beam	!	!
8GG/L	8bb\L	.
8B 8G 8D\	8r	.
8BJ 8G 8D\	8bb\J	.
*Xrep	*	*
=9	=9	=9
8AA\L	8a'>\L	.
8A 8F# 8D\	8ff#'>\	.
8AJ 8F# 8D\	8dd'>\J	.
*rep	*	*
8AA\L	(>4aa\	.
8A 8F# 8D\	.	.
8AJ 8F# 8D\	8aa#X\)	.
*Xrep	*	*
=10	=10	=10
8AA\L	(>16ccc\LL	.
.	16bb\	.
8A 8G 8E 8C#X\	16aa#X\	.
.	16bb\	.
8AJ 8G 8E 8C#\	16gg\	.
.	16ee\JJ	.
4A 4F# 4D\	4dd\)	.
!!LO:LB:g=original
=!|:	=!|:	=!|:
*>B	*>B	*
8r	[<8d/	.
=11	=11	=11
8D\L	8d'</L]	.
8d 8cn 8A\	8f#'</	.
8dJ 8c 8A\	8g'</J	.
*rep	*	*
8D\L	(<4g#X^>/	.
8d 8cn 8A\	.	.
8dJ 8c 8A\	8a/)	.
*Xrep	*	*
=12	=12	=12
!	!LO:TX:a:t=P:problem:obiegnik przekreślony	!
8D\L	8bSS\L	.
8d 8B 8G\	8ee'>\	.
8dJ 8B 8G\	8dd'>\J	.
*rep	*	*
8D\L	(<4f#^>/	.
8d 8B 8G\	.	.
8dJ 8B 8G\	8g/)	.
*Xrep	*	*
=13	=13	=13
8D\L	8b'</L	.
8d 8c 8A 8F#\	8cc'</	.
8dJ 8c 8A 8F#\	8g#X'</J	.
*rep	*	*
8D\L	(<4a^>/	.
8d 8c 8A 8F#\	.	.
8dJ 8c 8A 8F#\	8cc/)	.
*Xrep	*	*
=14	=14	=14
8D\L	(>8ee\L	.
8d 8B 8G\	8dd\)	.
8dJ 8B 8G\	8cc#X'>\J	.
*rep	*	*
8D\L	(>4dd^<\	.
8d 8B 8G\	.	.
8dJ 8B 8G\	8b\)	.
*Xrep	*	*
=15	=15	=15
8D\L	8dd'>\L	.
8d 8c 8A\	8ff#'>\	.
8dJ 8c 8A\	8gg'>\J	.
!	!LO:S:s=1:note:problem:note-level slur	!
!	!LO:S:s=2:note:problem:note-level slur	!
*rep	*	*
8D\L	(>4gg#X (>4g#X\	.
8d 8c 8A\	.	.
!	!LO:S:s=1:note:problem:note-level slur	!
!	!LO:S:s=2:note:problem:note-level slur	!
8dJ 8c 8A\	8aa) 8a\)	.
*Xrep	*	*
!!LO:LB:g=original
=16	=16	=16
.	(<16qqccc/LL	.
.	16qqbb/	.
.	16qqaa#X/JJ	.
8GL 8GG\	8bb\L)	.
8d 8B 8G\	8eee 8ee\	.
8dJ 8B 8G\	8dddJ 8dd\	.
*rep	*	*
8GL 8GG\	4ggg 4gg\	.
8d 8B 8G\	.	.
8dJ 8B 8G\	8bb 8b\	.
*Xrep	*	*
=17	=17	=17
!LO:TX:t=P:problem:mixed beam	!	!LO:DY:b:rj
8AA/L	8aaL 8a'>\	f
8f#\ 8d\ 8A\	16ff#'>\L	.
.	16ee'>\J	.
8f#\J 8d\ 8A\	8dd'>\J	.
!LO:TX:t=P:problem:mixed beam	!	!
8AA/L	8a\L	.
8g\ 8e\ 8A\	16ee\L	.
.	16dd\J	.
8g\J 8e\ 8A\	8cc#X\J	.
=18	=18	=18
8D\L	(>16ee\LL	.
.	16dd\	.
8F#\	16cc#X\	.
.	16dd\)	.
8A\J	16a'>\	.
.	16f#'>\JJ	.
8D\	8d/	.
8r	8e|</L	.
8r	(<8e-X/J	.
=19	=19	=19
!LO:TX:t=P:problem:mixed beam	!	!LO:DY:b:rj
8GG/L	8d/L)	p
8B 8G 8D\	8b'</	.
8BJ 8G 8D\	8g'</J	.
*rep	*	*
!LO:TX:t=P:problem:mixed beam	!	!
8GG/L	4dd'>\	.
8B 8G 8D\	.	.
8BJ 8G 8D\	8ee'>\	.
*Xrep	*	*
!!LO:LB:g=original
=20	=20	=20
!LO:TX:t=P:problem:mixed beam	!	!
.	(<8qee/	.
8GG/L	8.dd\L)	.
8B\ 8G\ 8D\	.	.
.	16cc#X|>\K	.
8B\J 8G\ 8D\	8dd|>\J	.
*rep	*	*
!LO:TX:t=P:problem:mixed beam	!	!
8GG/L	8b\L	.
8B 8G 8D\	8r	.
8BJ 8G 8D\	8b\J	.
*Xrep	*	*
=21	=21	=21
.	(<8qdd/	.
8D\L	8.ccn\L)	.
8c 8A 8F#\	.	.
.	16b\K	.
8cJ 8A 8F#\	8cc\J	.
*rep	*	*
8D\L	8a/L	.
8c 8A 8F#\	8r	.
8cJ 8A 8F#\	8a/J	.
*Xrep	*	*
=22	=22	=22
!LO:TX:t=P:problem:mixed beam	!	!
8GG/L	8g/L	.
8B 8G 8D\	8b/	.
8BJ 8G 8D\	8f#/J	.
*rep	*	*
!LO:TX:t=P:problem:mixed beam	!	!
8GG/L	8g/	.
8B 8G 8D\	8eeL 8e'</	.
8BJ 8G 8D\	[>8ddJ [<8d'</	.
*Xrep	*	*
=23	=23	=23
*rep	*	*
!LO:TX:t=P:problem:mixed beam	!	!
8GG/L	8dd]L 8d\]	.
8B 8G 8D\	8bb 8b\	.
8BJ 8G 8D\	8ggJ 8g\	.
!LO:TX:t=P:problem:mixed beam	!	!
8GG/L	4ddd 4dd\	.
8B 8G 8D\	.	.
8BJ 8G 8D\	8ddd#X 8dd#X\	.
*Xrep	*	*
!!LO:LB:g=original
=24	=24	=24
8C\L	4ee\	.
8c 8G 8E\	.	.
8cJ 8G#X 8E\	8b\	.
8C\L	(>8dd\L	.
8c 8A 8E\	8cc\)	.
8cJ 8A 8E\	8a'>\J	.
=25	=25	=25
*>B1	*>B1	*
8D\L	8g'>\L	.
8d 8B 8G\	16b'>\L	.
.	16ee'>\J	.
8dJ 8B 8G\	8dd'>\J	.
*rep	*	*
8D\L	(>8gg\L	.
8d 8B 8G\	8b\)	.
!	!LO:TX:a:i:t=Ima	!
8dJ 8B 8G\	8ee'>\J	.
*Xrep	*	*
=26	=26	=26
*^	*	*
!	!	!	!LO:DY:b:rj
4.D/	8D\L	(>16cc#X\LL	f
.	.	16dd\	.
.	8d 8cn 8F#\	16ee\	.
.	.	16dd\)	.
.	8dJ 8c 8F#\	16ccn'>\	.
.	.	16a'>\JJ	.
4d 4B 4G\	4ryy	4g/	.
*v	*v	*	*
=27:|!	=27:|!	=27:|!
*>B2	*>B2	*
8D\L	8g'>\L	.
8d 8B 8G\	16b'>\L	.
.	16ee'>\J	.
8dJ 8B 8G\	8dd'>\J	.
!	!LO:TX:a:i:t=2	!
8D\L	(>8dd\L	.
8d 8c 8F#\	8cc\)	.
8dJ 8c 8F#\	8a'>\J	.
=28	=28	=28
*>C	*>C	*
8BL 8G\	(<16a/LL	.
.	16g/	.
8D\	16f#/	.
.	16g/)	.
8BB\J	16b'</	.
.	16dd'</JJ	.
8GG/	8gg 8g\	.
8.r	8.r	.
16G\ 16GG\	16g 16d 16B/	.
!!LO:LB:g=original
=29	=29	=29
*2\right	*	*
!LO:N:vis=2	!LO:N:vis=2	!
2.G\ 2.GG\	2.g/ 2.d/ 2.B;/	.
==	==	==
*-	*-	*-
!!!system-decoration: {(s1,s2)}
!!!RDF**kern: | = vertical stroke
!!!RDF**kern: > = above
!!!RDF**kern: < = below
!!!EED: Antoni Szymański
!!!EST: 2021-05-05
!!!ENC: Krzysztof Stępień
!!!END: 2021-04-10
